mobile/24/svg/critical-24.svg

<svg width="24" height="24" viewBox="0 0 24 24" fill="none" xmlns="http://www.w3.org/2000/svg">
<path d="M11.125 17V15.25H12.875V17H11.125Z" fill="black"/>
<path d="M11.125 7V13.5H12.875V7H11.125Z" fill="black"/>
<path fill-rule="evenodd" clip-rule="evenodd" d="M2 12C2 6.47715 6.47715 2 12 2C17.5228 2 22 6.47715 22 12C22 17.5228 17.5228 22 12 22C6.47715 22 2 17.5228 2 12ZM12 3.75C7.44365 3.75 3.75 7.44365 3.75 12C3.75 16.5563 7.44365 20.25 12 20.25C16.5563 20.25 20.25 16.5563 20.25 12C20.25 7.44365 16.5563 3.75 12 3.75Z" fill="black"/>
</svg>

<svg width="24" height="24" fill="none" xmlns="http://www.w3.org/2000/svg"><path d="M11.125 17v-1.75h1.75V17h-1.75zM11.125 7v6.5h1.75V7h-1.75z" fill="#000"/><path fill-rule="evenodd" clip-rule="evenodd" d="M2 12C2 6.477 6.477 2 12 2s10 4.477 10 10-4.477 10-10 10S2 17.523 2 12zm10-8.25a8.25 8.25 0 1 0 0 16.5 8.25 8.25 0 0 0 0-16.5z" fill="#000"/></svg>
